X: 29641
T: Northern Flicker, The
R: reel
M: 4/4
K: Edorian
B/c/d|:eged ~B2eg|edBG ADFA|~B2cB AGFE|DEGB A2B/c/d|
eged ~B2eg|edBG ADFA|~B2dB AGED|1 EGFD E2B/c/d:|2 EGFD E2fe||
|:dGBd edcB|c~E3 agec|dGBd edcB|cAFD EGA/B/c|
dGBd edcB|c~E3 aged|abfb aged|1 eBgf ~e2ce:|2 eBgf e2B/c/d||

